X: 1
T: Miss Jean Milligan
R: reel
M: 4/4
L: 1/8
K: Amaj
|:E2|A2 cB A2 ce|fefg a2 gf|e2 c2 dcBA|c2 B2 B2 cB|A2 cB A2 ce|fefg a2 gf|eagf edcB|c2 A2 A2:|
e|:a2 ed cB A2|dcde f3 e|a2 e2 efec|d2 B2 B3 e|a2 ed cB A2|dcde f3 e|eagf edcB|c2 A2 A2:|

